X:1
T:The Hand That Guides
T:The Hand That Guides
T:Henry Prior Morton
T:Sallie Moore Lyne, 1915
T:Public Domain Courtesy of the Cyber Hymnal™
T:Public Domain Courtesy of the Cyber Hymnal™
C:Henry Prior Morton
Z:Public Domain
Z:Courtesy of the Cyber Hymnal™
%%score ( 1 2 ) ( 3 4 )
L:1/8
Q:1/4=145
M:4/2
K:Ab
V:1 treble 
V:2 treble 
V:3 bass 
V:4 bass 
V:1
 [A,C]2 [B,D]2 | [CE]2 [CE]2 [CE]2 [CE]2 [DF] [CE]3 [EA]2 [EB]2 | %2
w: 1.~When the|days of life are gloom- y, And no|
w: 2.~When my|heart was hea- vy bur- dened, And my|
w: 3.~Do you|ask me whence the com- fort That has|
 [Ec]2 [Ec]2 [Ec]2 [Fd]2 [Ec]4 [Ec]2 [EB]2 | [FA]2 [FA]2 [FA]2 [FB]2 [FA]2 [FA]2 [DF]2 [DF]2 | %4
w: kind- ly light I find, When the|hea- vy sha- dows fall a- cross my|
w: life so full of care, That the|hours, in part- ing, brought no heav’n- ly|
w: brought my hope and cheer? Whence the|sun- beams that dis- pel the sha- dows|
 [CE]12 [A,C]2 [B,D]2 | [CE]2 [CE]2 [CE]2 [CE]2 [DF] [CE]3 [EA]2 [EB]2 | %6
w: way, There’s a|heav’n- ly voice that calls me, And the|
w: ray, Je- sus|came and soft- ly whis- pered: “Let Me|
w: gray? Ev- ery|bless- ing comes from Je- sus! “Seek, and|
 [Ec]2 [Ec]2 [Ec]2 [Ed]2 [Ee]4 E2 E2 | [DF]2 [EG]2 [FA]2 [Fd]2 [Ec]2 [CA]2 [DB]3 [DB] | [CA]12 || %9
w: words are sweet and kind— There’s a|hand that leads me up- ward day by|day.|
w: ev- ery bur- den bear,” And His|lov- ing hand has led me day by|day.|
w: ye shall find” Him near, And His|lov- ing hand will guide you day by|day.|
"^Refrain" [Ec]2 [Ed]2 | [Ae]2 [Ae]2 [Ae]2 [Af]2 [Ae] [Ec]3 [Ec]2 [EB]2 | %11
w: ||
w: I will|fol- low, fol- low Je- sus, I will|
w: ||
 [FA]2 [FA]2 [FA]2 [FB]2 [FA]4 [DF]2 [DA]2 | [CE]2 [CE]2 [EA]2 [EB]2 [Ec]2 [Ec]2 [Ee]3 [Ec] | %13
w: ||
w: trust His sav- ing love; He has|prom- ised He will ans- wer when I|
w: ||
 [EB]12 [Ec]2 [Ed]2 | [Ae]2 [Ae]2 [Ae]2 [Af]2 [Ae] [Ec]3 [Ec]2 [EB]2 | %15
w: ||
w: pray; He will|lead me thro’ life’s chang- es, To the|
w: ||
 [FA]2 [FA]2 [FA]2 [FB]2 [FA]4 [DF]2 [DA]2 | [CE]2 [Ec]2 [Ec]2 [Ed]2 [Ec]2 [CA]2 [DB]3 [DB] | %17
w: ||
w: bet- ter land a- bove, And His|hand will safe- ly guide me all the|
w: ||
 [CA]12 |] %18
w: |
w: way.|
w: |
V:2
 x4 | x16 | x16 | x16 | x16 | x16 | x12 E2 E2 | x16 | x12 || x4 | x16 | x16 | x16 | x16 | x16 | %15
 x16 | x16 | x12 |] %18
V:3
 [A,,E,]2 [A,,E,]2 | [A,,A,]2 [A,,A,]2 [A,,A,]2 [A,,A,]2 [A,,A,] [A,,A,]3 [C,A,]2 [E,G,]2 | %2
 A,2 A,2 A,2 A,2 A,4 A,2 [C,A,]2 | [D,D]2 [D,D]2 [D,D]2 [D,D]2 [D,D]2 [D,D]2 [D,A,]2 [D,A,]2 | %4
 [A,,A,]12 [A,,E,]2 [A,,E,]2 | %5
 [A,,A,]2 [A,,A,]2 [A,,A,]2 [A,,A,]2 [A,,A,] [A,,A,]3 [C,A,]2 [E,G,]2 | %6
 A,2 A,2 A,2 [A,B,]2 [A,C]4 [C,A,]2 [C,A,]2 | %7
 [D,A,]2 [D,A,]2 [D,A,]2 [D,A,]2 [E,A,]2 [E,A,]2 [E,G,]3 [E,G,] | [A,,A,]12 || A,2 [A,B,]2 | %10
 [A,C]2 [A,C]2 [A,C]2 [A,D]2 [A,C] A,3 A,2 [C,A,]2 | %11
 [D,D]2 [D,D]2 [D,D]2 [D,D]2 [D,D]4 [D,A,]2 [F,A,]2 | %12
 A,2 [A,,A,]2 [C,A,]2 [E,G,]2 A,2 A,2 [A,C]3 A, | [E,G,]12 A,2 [A,B,]2 | %14
 [A,C]2 [A,C]2 [A,C]2 [A,D]2 [A,C] A,3 A,2 [C,A,]2 | %15
 [D,D]2 [D,D]2 [D,D]2 [D,D]2 [D,D]4 [D,A,]2 [F,A,]2 | %16
 [E,A,]2 [E,A,]2 [E,A,]2 [E,B,]2 [E,A,]2 [E,A,]2 [E,G,]3 [E,G,] | [A,,A,]12 |] %18
V:4
 x4 | x16 | A,2 A,2 A,2 A,2 A,4 A,2 x2 | x16 | x16 | x16 | A,2 A,2 A,2 x10 | x16 | x12 || A,2 x2 | %10
 x9 A,3 A,2 x2 | x16 | A,2 x4 A,2 A,2 x A, x4 | x12 A,2 x2 | x9 A,3 A,2 x2 | x16 | x16 | x12 |] %18

